icon-themes/breeze_svg/cmd/sc_interactivetransparence.svg

<svg height="16" width="16" xmlns="http://www.w3.org/2000/svg" xmlns:xlink="http://www.w3.org/1999/xlink"><linearGradient id="a" gradientTransform="matrix(.71428567 0 0 .71428965 3.142856 297.52813)" gradientUnits="userSpaceOnUse" x1="3" x2="19" y1="1049.3622" y2="1033.3622"><stop offset="0" stop-color="#1d99f3"/><stop offset=".41666669" stop-color="#48acf5" stop-opacity=".761194"/><stop offset=".66666329" stop-color="#73c0f7" stop-opacity="0"/><stop offset="1" stop-color="#cae7fc" stop-opacity="0"/></linearGradient><g transform="matrix(.75 0 0 .74999813 -.24999925 -773.019862999619)"><path d="m5.666666 1036.0291h10.666667v10.666708h-10.666667z" fill="#b3b3b3"/><path d="m5.666666 1041.3624h5.333333v5.333347h-5.333333z" fill="#777"/><path d="m10.999999 1036.0291h5.333333v5.333347h-5.333333z" fill="#777"/><path d="m14.999999 1034.6957-1.333333 1.3334h-8v9.3333h-1.3333333v2.6667h2.6666667l1.3333333-1.3333h8.0000003v-8.0001l1.333333-1.3333-.000001-2.6667z" fill="url(#a)"/><path d="m14.999999 1034.6957v1.3333h1.333333v1.3334h1.333333v-1.3334-1.3333h-1.333333z" fill="#999" fill-opacity=".761194"/><path d="m10 2v3.28125l-1 1-.1875.1875-.8125.8125-.71875.71875-2 2h-3.28125v4h4v-3.28125l2.71875-2.71875.8125-.8125.1875-.1875 1-1h3.28125v-4zm1 1h2v2h-2zm-8 8h2v2h-2z" fill="#4d4d4d" transform="matrix(1.3333333 0 0 1.3333367 .333333 1030.6957)"/></g></svg>

<?xml version="1.0" encoding="UTF-8" standalone="no"?>
<!-- Created with Inkscape (http://www.inkscape.org/) -->

<svg
   xmlns:dc="http://purl.org/dc/elements/1.1/"
   xmlns:cc="http://creativecommons.org/ns#"
   xmlns:rdf="http://www.w3.org/1999/02/22-rdf-syntax-ns#"
   xmlns:svg="http://www.w3.org/2000/svg"
   xmlns="http://www.w3.org/2000/svg"
   xmlns:xlink="http://www.w3.org/1999/xlink"
   xmlns:sodipodi="http://sodipodi.sourceforge.net/DTD/sodipodi-0.dtd"
   xmlns:inkscape="http://www.inkscape.org/namespaces/inkscape"
   width="16"
   height="16"
   id="svg3049"
   version="1.1"
   inkscape:version="0.48.4 r9939"
   sodipodi:docname="sc_interactivetransparence.svg"
   inkscape:export-filename="/home/uri/.kde/share/icons/NITRUX-KDE/16x16/actions/view-right-new.png"
   inkscape:export-xdpi="30"
   inkscape:export-ydpi="30">
  <defs
     id="defs3051">
    <linearGradient
       id="linearGradient4172-7-0"
       inkscape:collect="always">
      <stop
         id="stop4174-2-5"
         offset="0"
         style="stop-color:#1d99f3;stop-opacity:1" />
      <stop
         style="stop-color:#48acf5;stop-opacity:0.76119405"
         offset="0.41666669"
         id="stop4354" />
      <stop
         style="stop-color:#73c0f7;stop-opacity:0"
         offset="0.66666329"
         id="stop4344" />
      <stop
         id="stop4176-0-5"
         offset="1"
         style="stop-color:#cae7fc;stop-opacity:0" />
    </linearGradient>
    <linearGradient
       inkscape:collect="always"
       xlink:href="#linearGradient4172-7-0"
       id="linearGradient9292"
       gradientUnits="userSpaceOnUse"
       gradientTransform="matrix(0.71428567,0,0,0.71428965,3.1428564,297.52813)"
       x1="3"
       y1="1049.3622"
       x2="19"
       y2="1033.3622" />
  </defs>
  <sodipodi:namedview
     id="base"
     pagecolor="#ffffff"
     bordercolor="#666666"
     borderopacity="1.0"
     inkscape:pageopacity="0.0"
     inkscape:pageshadow="2"
     inkscape:zoom="39.774756"
     inkscape:cx="7.7993526"
     inkscape:cy="6.6307692"
     inkscape:document-units="px"
     inkscape:current-layer="layer1-6"
     showgrid="true"
     fit-margin-top="0"
     fit-margin-left="0"
     fit-margin-right="0"
     fit-margin-bottom="0"
     inkscape:window-width="1868"
     inkscape:window-height="1060"
     inkscape:window-x="50"
     inkscape:window-y="-3"
     inkscape:window-maximized="1"
     inkscape:showpageshadow="false"
     borderlayer="true"
     inkscape:snap-bbox="true"
     inkscape:snap-global="true">
    <inkscape:grid
       type="xygrid"
       id="grid4085" />
    <sodipodi:guide
       position="2.0000044,14.00003"
       orientation="12,0"
       id="guide4075" />
    <sodipodi:guide
       position="2.0000044,2.0000296"
       orientation="0,12"
       id="guide4077" />
    <sodipodi:guide
       position="14,9"
       orientation="-12,0"
       id="guide4079" />
    <sodipodi:guide
       position="14,14"
       orientation="0,-12"
       id="guide4081" />
  </sodipodi:namedview>
  <metadata
     id="metadata3054">
    <rdf:RDF>
      <cc:Work
         rdf:about="">
        <dc:format>image/svg+xml</dc:format>
        <dc:type
           rdf:resource="http://purl.org/dc/dcmitype/StillImage" />
        <dc:title />
      </cc:Work>
    </rdf:RDF>
  </metadata>
  <g
     inkscape:label="Capa 1"
     inkscape:groupmode="layer"
     id="layer1"
     transform="translate(-421.71429,-531.79074)">
    <g
       transform="matrix(0.75,0,0,0.74999813,421.46429,-241.22897)"
       id="layer1-0"
       inkscape:label="Capa 1">
      <g
         transform="translate(6.2937501e-7,-2.041003e-4)"
         id="layer1-6"
         inkscape:label="Capa 1">
        <rect
           style="fill:#b3b3b3;fill-opacity:1;stroke:none"
           id="rect4346"
           width="10.666667"
           height="10.666708"
           x="5.666666"
           y="1036.0291" />
        <rect
           style="fill:#777777;fill-opacity:1;stroke:none"
           id="rect4352"
           width="5.333333"
           height="5.3333468"
           x="5.666666"
           y="1041.3624" />
        <rect
           style="fill:#777777;fill-opacity:1;stroke:none"
           id="rect4348"
           width="5.333333"
           height="5.3333468"
           x="10.999999"
           y="1036.0291" />
        <path
           inkscape:connector-curvature="0"
           style="fill:url(#linearGradient9292);fill-opacity:1;stroke:none"
           d="m 14.999999,1034.6957 -1.333333,1.3334 -8,0 0,9.3333 -1.3333333,0 0,2.6667 2.6666667,0 1.3333333,-1.3333 8.0000003,0 0,-8.0001 1.333333,-1.3333 -1e-6,-2.6667 z"
           id="rect4156-9"
           sodipodi:nodetypes="ccccccccccccc" />
        <path
           inkscape:connector-curvature="0"
           style="fill:#999999;fill-opacity:0.76119403;stroke:none"
           d="m 14.999999,1034.6957 0,1.3333 1.333333,0 0,1.3334 1.333333,0 0,-1.3334 0,-1.3333 -1.333333,0 -1.333333,0 z"
           id="rect4356" />
        <path
           style="fill:#4d4d4d;fill-opacity:1;stroke:none"
           d="M 10 2 L 10 5.28125 L 9 6.28125 L 8.8125 6.46875 L 8 7.28125 L 7.28125 8 L 5.28125 10 L 2 10 L 2 14 L 6 14 L 6 10.71875 L 8.71875 8 L 9.53125 7.1875 L 9.71875 7 L 10.71875 6 L 14 6 L 14 2 L 10 2 z M 11 3 L 13 3 L 13 5 L 11 5 L 11 3 z M 3 11 L 5 11 L 5 13 L 3 13 L 3 11 z "
           transform="matrix(1.3333333,0,0,1.3333367,0.3333327,1030.6957)"
           id="path4318" />
      </g>
    </g>
  </g>
</svg>
